brandFactory_export/3.Masa/Jeringuilla _3Masa.svg

<?xml version="1.0" encoding="UTF-8"?>
<svg width="24px" height="24px" viewBox="0 0 24 24" version="1.1" xmlns="http://www.w3.org/2000/svg" xmlns:xlink="http://www.w3.org/1999/xlink">
    <title>3.Masa/Jeringuilla _3Masa</title>
    <g id="Symbols" stroke="none" stroke-width="1" fill="none" fill-rule="evenodd">
        <g id="3.Masa/Jeringuilla-_3Masa" fill="#5CB615" fill-rule="nonzero">
            <path d="M18.789916,6.29915966 L17.3815126,4.88067227 L20.0504202,2.19159664 L21.4588235,3.61008403 L18.789916,6.29915966 L18.789916,6.29915966 Z M15.8285714,7.77815126 C15.7109244,7.90588235 15.5428571,7.96638655 15.3747899,7.96638655 C15.2168067,7.96638655 15.0487395,7.90588235 14.9210084,7.78823529 L12.8739496,5.74453782 L13.7781513,4.83361345 L15.8252101,6.86722689 C16.0739496,7.11260504 16.0840336,7.52941176 15.8285714,7.77815126 Z M14.507563,11.3579832 C14.3798319,11.4756303 14.2117647,11.5462185 14.0537815,11.5462185 C13.8857143,11.5462185 13.7210084,11.4756303 13.6,11.3579832 L10.4504202,8.18487395 L11.3546218,7.27394958 L14.5042017,10.4470588 C14.7529412,10.692437 14.7529412,11.0991597 14.507563,11.3579832 Z M11.0722689,12.7563025 C10.9546218,12.8840336 10.7865546,12.9546218 10.6184874,12.9546218 C10.4605042,12.9546218 10.292437,12.8840336 10.1647059,12.7663866 L8.02689076,10.6252101 L8.93445378,9.71428571 L11.0722689,11.8453782 C11.3176471,12.1008403 11.3277311,12.507563 11.0722689,12.7563025 L11.0722689,12.7563025 Z M9.73109244,15.6436975 C9.60336134,15.7714286 9.44537815,15.8319328 9.28067227,15.8319328 C9.12268908,15.8319328 8.95462185,15.7714286 8.82689076,15.6436975 L5.93277311,12.7361345 L6.83697479,11.8218487 L9.73109244,14.7394958 C9.98991597,14.9882353 9.98991597,15.394958 9.73109244,15.6436975 Z M6.95462185,17.4184874 L6.20504202,18.1714286 L5.52605042,17.4857143 L6.27563025,16.7226891 C6.28571429,16.712605 6.28571429,16.702521 6.29579832,16.692437 L6.98487395,17.394958 C6.97478992,17.4084034 6.96470588,17.4084034 6.95462185,17.4184874 L6.95462185,17.4184874 Z M23.4084034,3.46218487 L20.2184874,0.248739496 C19.9226891,-0.0403361345 19.4621849,-0.0403361345 19.1663866,0.248739496 C18.9411765,0.477310924 18.9008403,0.823529412 19.0386555,1.10252101 L16.3428571,3.83193277 L15.0218487,2.50420168 C14.7361345,2.20504202 14.2722689,2.20504202 13.9764706,2.50420168 C13.6907563,2.79327731 13.6907563,3.26722689 13.9764706,3.55630252 L14.1647059,3.74453782 L13.4352941,4.47731092 L13.4352941,4.48739496 L5.58655462,12.3831933 L4.32605042,13.6638655 C4.18823529,13.8016807 4.11092437,13.989916 4.11092437,14.1882353 C4.11092437,14.3865546 4.18823529,14.5747899 4.32605042,14.712605 L5.2605042,15.6537815 C5.25042017,15.6638655 5.24033613,15.6638655 5.2302521,15.6739496 L3.95966387,16.9647059 C3.66386555,17.2537815 3.66386555,17.7277311 3.95966387,18.0168067 L4.25546218,18.3159664 L0.221848739,22.3865546 C-0.0739495798,22.6756303 -0.0739495798,23.1495798 0.221848739,23.4386555 C0.359663866,23.5865546 0.544537815,23.6571429 0.742857143,23.6571429 C0.931092437,23.6571429 1.11596639,23.5865546 1.26386555,23.4386555 L5.30084034,19.3613445 L5.68403361,19.7478992 C5.83193277,19.8957983 6.02016807,19.9663866 6.20504202,19.9663866 C6.39327731,19.9663866 6.58151261,19.8957983 6.72605042,19.7478992 L7.99663866,18.4672269 C8.00672269,18.4571429 8.00672269,18.4470588 8.01680672,18.4369748 L9.12941176,19.5563025 C9.27731092,19.6941176 9.46554622,19.7747899 9.65042017,19.7747899 C9.8487395,19.7747899 10.0336134,19.6941176 10.1714286,19.5563025 L20.0168067,9.63697479 L20.2319328,9.85546218 C20.3798319,9.99327731 20.5680672,10.0739496 20.7529412,10.0739496 C20.9411765,10.0739496 21.1260504,9.99327731 21.2739496,9.85546218 C21.5596639,9.55630252 21.5596639,9.09243697 21.2739496,8.80336134 L19.8285714,7.34453782 L22.5243697,4.62521008 C22.6319328,4.68571429 22.7495798,4.72268908 22.8705882,4.72268908 C23.0689076,4.72268908 23.2537815,4.65210084 23.4016807,4.50420168 C23.6941176,4.22521008 23.6941176,3.7512605 23.4084034,3.46218487 Z" id="Jeringuilla-_3Masa"></path>
        </g>
    </g>
</svg>

<svg width="24" height="24" viewBox="0 0 24 24" xmlns="http://www.w3.org/2000/svg"><path d="M18.79 6.3l-1.408-1.42 2.668-2.688L21.46 3.61l-2.67 2.69zm-2.961 1.478a.612.612 0 01-.454.188.68.68 0 01-.454-.178l-2.047-2.043.904-.911 2.047 2.033a.643.643 0 01.004.911zm-1.321 3.58a.691.691 0 01-.454.188.659.659 0 01-.454-.188l-3.15-3.173.905-.911 3.15 3.173a.652.652 0 01.003.911zm-3.436 1.398a.621.621 0 01-.454.199.691.691 0 01-.453-.189l-2.138-2.14.907-.912 2.138 2.131a.646.646 0 010 .911zm-1.34 2.888a.626.626 0 01-.451.188.645.645 0 01-.454-.188l-2.894-2.908.904-.914 2.894 2.917a.624.624 0 010 .905zm-2.777 1.774l-.75.753-.679-.685.75-.763c.01-.01.01-.02.02-.03l.689.702c-.01.013-.02.013-.03.023zM23.408 3.462L20.218.25a.747.747 0 00-1.052 0 .747.747 0 00-.127.854l-2.696 2.729-1.321-1.328a.721.721 0 00-1.046 0 .753.753 0 000 1.052l.189.189-.73.732v.01l-7.848 7.896-1.26 1.28a.74.74 0 00-.216.525.74.74 0 00.215.525l.935.94c-.01.01-.02.01-.03.02L3.96 16.966a.735.735 0 000 1.052l.295.299-4.033 4.07a.735.735 0 000 1.053.696.696 0 00.52.218c.19 0 .374-.07.522-.218L5.3 19.36l.383.387a.734.734 0 001.042 0l1.27-1.28c.01-.01.01-.02.02-.031l1.113 1.12a.779.779 0 00.521.218c.199 0 .384-.08.521-.219l9.846-9.919.215.218a.779.779 0 00.52.219c.19 0 .374-.08.522-.219a.753.753 0 000-1.052l-1.445-1.458 2.695-2.72c.108.06.226.098.347.098.198 0 .383-.07.53-.219a.734.734 0 00.007-1.042z" fill="#5CB615" fill-rule="nonzero"/></svg>
